spark-frontend/src/assets/icons/logout.svg

<svg width="24" height="24" viewBox="0 0 24 24" fill="none" xmlns="http://www.w3.org/2000/svg">
    <path fill-rule="evenodd" clip-rule="evenodd"
          d="M14.2857 5.3H5.71429L5.7142 5.3C5.71388 5.29999 5.71324 5.29998 5.71098 5.30059C5.70815 5.30137 5.69967 5.30403 5.6856 5.31197C5.65647 5.32839 5.60332 5.36785 5.5421 5.44947C5.41627 5.61725 5.3 5.90861 5.3 6.28571V17.7143C5.3 18.0914 5.41627 18.3828 5.5421 18.5505C5.60332 18.6322 5.65647 18.6716 5.6856 18.688C5.69967 18.696 5.70815 18.6986 5.71098 18.6994C5.71345 18.7001 5.71398 18.7 5.71429 18.7H14.2857L14.2866 18.7L14.289 18.6994C14.2918 18.6986 14.3003 18.696 14.3144 18.688C14.3435 18.6716 14.3967 18.6322 14.4579 18.5505C14.5837 18.3828 14.7 18.0914 14.7 17.7143V17H16V17.7143C16 18.9767 15.2325 20 14.2857 20H5.71429C4.76751 20 4 18.9767 4 17.7143V6.28571C4 5.02335 4.76751 4 5.71429 4H14.2857C15.2325 4 16 5.02335 16 6.28571V7H14.7V6.28571C14.7 5.90861 14.5837 5.61725 14.4579 5.44947C14.3967 5.36785 14.3435 5.32839 14.3144 5.31197C14.3003 5.30403 14.2918 5.30137 14.289 5.30059C14.2868 5.29998 14.2861 5.29999 14.2858 5.3L14.2857 5.3ZM16.875 8L20 11.4253V12.5773L16.875 16L15.885 14.944L17.345 13.3133L17.9 12.9293L17.825 12.6893L17.165 12.8013H9V11.2013H17.165L17.825 11.3133L17.9 11.0733L17.345 10.6893L15.885 9.056L16.875 8Z"
          fill="#969696"/>
</svg>

<svg xmlns="http://www.w3.org/2000/svg" width="24" height="24" fill="none"><path fill="#969696" fill-rule="evenodd" d="M14.286 5.3H5.71l-.025.012a.5.5 0 0 0-.144.137c-.126.168-.242.46-.242.837v11.428c0 .377.116.669.242.837a.5.5 0 0 0 .144.137q.02.01.025.011l.003.001h8.575l.025-.012a.5.5 0 0 0 .144-.137c.126-.168.242-.46.242-.837V17H16v.714C16 18.977 15.232 20 14.286 20H5.714C4.768 20 4 18.977 4 17.714V6.286C4 5.023 4.768 4 5.714 4h8.572C15.233 4 16 5.023 16 6.286V7h-1.3v-.714c0-.377-.116-.669-.242-.837a.5.5 0 0 0-.144-.137zM16.875 8 20 11.425v1.152L16.875 16l-.99-1.056 1.46-1.63.555-.385-.075-.24-.66.112H9v-1.6h8.165l.66.112.075-.24-.555-.384-1.46-1.633z" clip-rule="evenodd"/></svg>
